jekyll-resources/assets/img/icon-docs-ipl.svg

<?xml version="1.0" encoding="UTF-8"?>
<svg width="43px" height="44px" viewBox="0 0 43 44" version="1.1" xmlns="http://www.w3.org/2000/svg" xmlns:xlink="http://www.w3.org/1999/xlink">
    <!-- Generator: Sketch 51.3 (57544) - http://www.bohemiancoding.com/sketch -->
    <title>Group 4</title>
    <desc>Created with Sketch.</desc>
    <defs>
        <linearGradient x1="0%" y1="85%" x2="100%" y2="15%" id="linearGradient-1">
            <stop stop-color="#912E40" offset="0%"></stop>
            <stop stop-color="#D78747" offset="100%"></stop>
        </linearGradient>
    </defs>
    <g id="Page-1" stroke="none" stroke-width="1" fill="none" fill-rule="evenodd">
        <g id="docs-new-design" transform="translate(-528.000000, -496.000000)">
            <g id="Group-4" transform="translate(528.000000, 496.000000)">
                <circle id="Oval-2-Copy" fill="#F6FAF9" cx="21.5006398" cy="22.1328125" r="21.5"></circle>
                <g id="ipl-copy" transform="translate(10.269194, 11.132812)">
                    <path d="M5.21820844,9.49190513 C5.58889906,9.49190513 5.88941324,9.19262897 5.88941324,8.82337185 C5.88941324,8.45424505 5.58889906,8.1549689 5.21820844,8.1549689 C4.84751782,8.1549689 4.54700364,8.45424505 4.54700364,8.82337185 C4.54700364,9.19262897 4.84751782,9.49190513 5.21820844,9.49190513" id="Fill-1" fill="#15CCCC"></path>
                    <path d="M9.5119709,9.49190513 C9.88266152,9.49190513 10.1831757,9.19262897 10.1831757,8.82337185 C10.1831757,8.45424505 9.88266152,8.1549689 9.5119709,8.1549689 C9.14128028,8.1549689 8.84070094,8.45424505 8.84070094,8.82337185 C8.84070094,9.19262897 9.14128028,9.49190513 9.5119709,9.49190513" id="Fill-3" fill="#15CCCC"></path>
                    <path d="M7.35331866,8.04020402 C7.52625115,8.04020402 7.66653888,8.18042659 7.66653888,8.3534894 L7.66653888,9.29341069 C7.66653888,9.46640834 7.52625115,9.60663091 7.35331866,9.60663091 C7.18032102,9.60663091 7.04009844,9.46640834 7.04009844,9.29341069 L7.04009844,8.3534894 C7.04009844,8.18042659 7.18032102,8.04020402 7.35331866,8.04020402" id="Fill-5" fill="#15CCCC"></path>
                    <path d="M11.6794001,1.99357469 L11.6755557,1.99357469 L11.6122861,1.99344437 C11.0725074,1.99344437 10.6348983,1.55583526 10.6348983,1.01605655 C10.6348983,0.476277829 11.0725074,0.0386687203 11.6122861,0.0386687203 L11.6831142,0.0387990387 C12.2228929,0.0408841327 12.6588078,0.480122222 12.6567227,1.0199661 C12.6546376,1.55844163 12.2174847,1.99357469 11.6794001,1.99357469 Z" id="Fill-7" fill="#15CCCC"></path>
                    <path d="M4.80810303,4.45783004 C4.52791852,4.45783004 4.24988426,4.33806745 4.05655695,4.10597042 C3.71108293,3.69116702 3.76731531,3.07489142 4.18205354,2.7294174 C5.2181498,1.86664459 6.38899525,1.19563527 7.6622058,0.735090126 C8.16999135,0.551471533 8.73009973,0.814063062 8.91378349,1.32165314 C9.09740208,1.82930838 8.83474539,2.38961224 8.32715531,2.57323083 C7.26792755,2.95636686 6.29425379,3.51432499 5.43310996,4.23153217 C5.2504036,4.38367888 5.02860172,4.45783004 4.80810303,4.45783004 Z" id="Path" fill="#15CCCC"></path>
                    <path d="M18.4702907,4.49177797 C18.248554,4.49177797 18.0257095,4.41677975 17.8426122,4.26313438 C17.4111281,3.90110993 16.9429593,3.57368501 16.4512681,3.28978642 C15.9726087,3.01331599 15.4691888,2.77698361 14.955148,2.58724006 C14.4487959,2.40029834 14.1897881,1.83823518 14.3767298,1.33188313 C14.5636716,0.825400761 15.1259302,0.566718783 15.6320868,0.753399858 C16.249861,0.981457017 16.8543428,1.26522528 17.4287211,1.59688555 C18.0186072,1.93753779 18.5806052,2.33070833 19.0989465,2.76564591 C19.5125119,3.11255343 19.5665289,3.72902451 19.2195562,4.14252472 C19.0262289,4.37299277 18.7492372,4.49177797 18.4702907,4.49177797 Z" id="Path" fill="#15CCCC"></path>
                    <path d="M2.40099229,7.32066414 C2.23522731,7.32066414 2.06724693,7.27844098 1.91340608,7.18969417 C1.44719209,6.92071704 1.28644437,6.32561817 1.55294545,5.85868743 L1.59184549,5.79163862 C1.86434121,5.32568527 2.46302384,5.16871678 2.92891203,5.44134282 C3.39486539,5.71390371 3.55176872,6.31252117 3.27920783,6.77847453 L3.24845269,6.83151411 C3.06750563,7.14519044 2.73877752,7.32066414 2.40099229,7.32066414 Z" id="Path" fill="#15CCCC"></path>
                    <path d="M20.8655425,7.36451627 C20.5250857,7.36451627 20.1942725,7.18624073 20.014368,6.86885032 L19.9847205,6.81704877 C19.7148963,6.34953159 19.8751879,5.75182636 20.3427703,5.48200216 C20.810092,5.21224312 21.4079275,5.3724044 21.6778169,5.8400519 L21.7150228,5.90495045 C21.9811981,6.37455272 21.816215,6.97108509 21.3466127,7.23726037 C21.1944009,7.32353114 21.0288314,7.36451627 20.8655425,7.36451627 Z" id="Path" fill="#15CCCC"></path>
                    <path d="M1.13247321,14.4439969 C0.665737944,14.4439969 0.252759008,14.1086226 0.170528112,13.6330257 C0.0574117609,12.9788274 6.51591884e-06,12.3111412 6.51591884e-06,11.6485374 C6.51591884e-06,10.9703606 0.0601484468,10.2885348 0.17873817,9.62202151 C0.273284152,9.09058317 0.780743911,8.73618234 1.31224741,8.83105412 C1.84368575,8.9256001 2.19782594,9.43305986 2.1032148,9.9644982 C2.00469411,10.518221 1.95478217,11.0847801 1.95478217,11.6485374 C1.95478217,12.1997842 2.00247869,12.7553966 2.09669888,13.2998667 C2.18870365,13.8317612 1.83208742,14.3375268 1.30019296,14.4294664 C1.24389542,14.4392403 1.1877282,14.4439969 1.13247321,14.4439969 Z" id="Path" fill="#15CCCC"></path>
                    <path d="M22.1005697,14.4954075 C22.0438161,14.4954075 21.986476,14.4904554 21.9287449,14.4802254 C21.3972414,14.3860052 21.0427754,13.8786758 21.1369956,13.3471723 C21.2349299,12.7950785 21.2845812,12.2302135 21.2845812,11.6683458 C21.284516,11.1151443 21.2364937,10.5577726 21.1417523,10.0116735 C21.0494868,9.47984416 21.4057773,8.97388306 21.9377369,8.88161765 C22.469892,8.78948256 22.9754621,9.14570784 23.0677275,9.67753714 C23.1815606,10.3335598 23.2392917,11.003266 23.2393568,11.6682155 C23.2393568,12.3443724 23.1796059,13.0240479 23.0617981,13.6884761 C22.9777427,14.1623138 22.5654805,14.4954075 22.1005697,14.4954075 Z" id="Path" fill="#15CCCC"></path>
                    <path d="M2.40613987,17.9607686 C2.06828947,17.9607686 1.73969169,17.7852949 1.55867946,17.4716838 L1.52219032,17.4078929 C1.25529828,16.9386816 1.41943428,16.3420189 1.88871075,16.075192 C2.35772659,15.8083652 2.95471507,15.972436 3.22141163,16.4417125 L3.25177581,16.4946869 C3.52160001,16.9622692 3.36130841,17.5599093 2.89372607,17.8297335 C2.73988523,17.9184803 2.57190484,17.9607686 2.40613987,17.9607686 Z" id="Path" fill="#15CCCC"></path>
                    <path d="M20.8001226,18.0141992 C20.6325984,18.0141992 20.462989,17.9711941 20.3079753,17.8806228 C19.8418916,17.6083878 19.6847276,17.0097703 19.9570279,16.5436866 L19.9938428,16.4802216 C20.2634716,16.0126392 20.8613071,15.8522173 21.3288894,16.1220415 C21.7964718,16.3918657 21.9568285,16.9895709 21.6870695,17.4570881 L21.6449115,17.5297406 C21.4631825,17.8407454 21.1360834,18.0141992 20.8001226,18.0141992 Z" id="Path" fill="#27D7CD"></path>
                    <path d="M7.94017489,22.6220615 C7.82757982,22.6220615 7.71316028,22.6024486 7.60134711,22.5611377 C6.98585342,22.3335366 6.38339156,22.0504199 5.81070746,21.7198022 C5.21860591,21.377912 4.65497893,20.9833731 4.13559504,20.5468717 C3.72229031,20.1997035 3.66872946,19.5831673 4.01596277,19.1698625 C4.36300061,18.7564927 4.97960201,18.702997 5.39290674,19.0502954 C5.82523796,19.4134276 6.29464475,19.7420254 6.78816044,20.0269665 C7.26538634,20.3025247 7.76711209,20.5382707 8.27926331,20.7276884 C8.78561536,20.9149559 9.04429734,21.4771494 8.85709499,21.9833711 C8.71113841,22.37791 8.33758078,22.6220615 7.94017489,22.6220615 Z" id="Path" fill="#15CCCC"></path>
                    <path d="M15.2394375,22.6421957 C14.8392298,22.6421957 14.4638477,22.3945908 14.3200413,21.9965333 C14.1367485,21.4888129 14.3996659,20.9286394 14.9073211,20.7452162 C15.9668095,20.3626015 16.9408091,19.8052298 17.8023438,19.0885439 C18.2172124,18.7433957 18.8335532,18.7999538 19.1787665,19.2148875 C19.5239799,19.6298864 19.4674217,20.2460969 19.0524229,20.5913102 C18.0160008,21.4534966 16.8447644,22.1238543 15.5713584,22.5838131 C15.4617606,22.6233647 15.3496217,22.6421957 15.2394375,22.6421957 Z" id="Path" fill="#15CCCC"></path>
                    <path d="M11.6213432,23.278019 L11.5511016,23.2778887 C11.0113229,23.2760643 10.5751473,22.8369565 10.5770369,22.2971778 C10.5788614,21.7585068 11.0160144,21.3231131 11.5542293,21.3231131 L11.5576827,21.3231131 L11.6213432,21.3232434 C12.1611871,21.3232434 12.5987311,21.7608525 12.5987311,22.3006312 C12.5987311,22.8404099 12.1611871,23.278019 11.6213432,23.278019 Z" id="Path" fill="#15CCCC"></path>
                    <path d="M17.8141637,12.8498318 C17.8141637,12.5916711 17.6053937,12.3829662 17.3473633,12.3829662 L5.01377149,12.3829662 C4.75580626,12.3829662 4.54703622,12.5916711 4.54703622,12.8498318 C4.54703622,13.1079273 4.75580626,13.3168928 5.01377149,13.3168928 L17.3473633,13.3168928 C17.6053937,13.3168928 17.8141637,13.1079273 17.8141637,12.8498318" id="Fill-10" fill="#15CCCC"></path>
                    <path d="M17.3499045,8.18535263 L12.1921638,8.18535263 C11.8396526,8.18535263 11.5542553,8.4705544 11.5542553,8.82326108 C11.5542553,9.17596777 11.8396526,9.46156049 12.1921638,9.46156049 L17.3499045,9.46156049 C17.7024157,9.46156049 17.9877478,9.17596777 17.9877478,8.82326108 C17.9877478,8.4705544 17.7024157,8.18535263 17.3499045,8.18535263" id="Fill-12" fill="#15CCCC"></path>
                    <path d="M13.85861,10.5042313 L11.9914083,10.5042313 C11.7333779,10.5042313 11.5246079,10.7130013 11.5246079,10.9710969 C11.5246079,11.2292576 11.7333779,11.4382231 11.9914083,11.4382231 L13.85861,11.4382231 C14.1165753,11.4382231 14.3253453,11.2292576 14.3253453,10.9710969 C14.3253453,10.7130013 14.1165753,10.5042313 13.85861,10.5042313" id="Fill-14" fill="#15CCCC"></path>
                    <path d="M6.88097319,10.5042313 L5.01383665,10.5042313 C4.75580626,10.5042313 4.54703622,10.7130013 4.54703622,10.9710969 C4.54703622,11.2292576 4.75580626,11.4382231 5.01383665,11.4382231 L6.88097319,11.4382231 C7.13900358,11.4382231 7.34777362,11.2292576 7.34777362,10.9710969 C7.34777362,10.7130013 7.13900358,10.5042313 6.88097319,10.5042313" id="Fill-16" fill="#15CCCC"></path>
                    <path d="M10.3697916,10.5042313 L8.50258991,10.5042313 C8.24462468,10.5042313 8.03578949,10.7130013 8.03578949,10.9710969 C8.03578949,11.2292576 8.24462468,11.4382231 8.50258991,11.4382231 L10.3697916,11.4382231 C10.6277568,11.4382231 10.836592,11.2292576 10.836592,10.9710969 C10.836592,10.7130013 10.6277568,10.5042313 10.3697916,10.5042313" id="Fill-18" fill="#15CCCC"></path>
                    <path d="M17.3473633,10.5042313 L15.4802268,10.5042313 C15.2221964,10.5042313 15.0133612,10.7130013 15.0133612,10.9710969 C15.0133612,11.2292576 15.2221964,11.4382231 15.4802268,11.4382231 L17.3473633,11.4382231 C17.6053937,11.4382231 17.8141637,11.2292576 17.8141637,10.9710969 C17.8141637,10.7130013 17.6053937,10.5042313 17.3473633,10.5042313" id="Fill-20" fill="#15CCCC"></path>
                    <path d="M5.30055011,14.2616359 L5.01384968,14.2616359 C4.75581929,14.2616359 4.54704925,14.4703408 4.54704925,14.7285015 C4.54704925,14.986597 4.75581929,15.1956277 5.01384968,15.1956277 L5.30055011,15.1956277 C5.55851533,15.1956277 5.76735053,14.986597 5.76735053,14.7285015 C5.76735053,14.4703408 5.55851533,14.2616359 5.30055011,14.2616359" id="Fill-22" fill="#15CCCC"></path>
                    <path d="M7.02154111,14.2616359 L6.73484068,14.2616359 C6.47681029,14.2616359 6.26797509,14.4703408 6.26797509,14.7285015 C6.26797509,14.986597 6.47681029,15.1956277 6.73484068,15.1956277 L7.02154111,15.1956277 C7.27950633,15.1956277 7.48827637,14.986597 7.48827637,14.7285015 C7.48827637,14.4703408 7.27950633,14.2616359 7.02154111,14.2616359" id="Fill-24" fill="#15CCCC"></path>
                    <path d="M8.74246695,14.2616359 L8.45576652,14.2616359 C8.19780129,14.2616359 7.98896609,14.4703408 7.98896609,14.7285015 C7.98896609,14.986597 8.19780129,15.1956277 8.45576652,15.1956277 L8.74246695,15.1956277 C9.00049733,15.1956277 9.20926737,14.986597 9.20926737,14.7285015 C9.20926737,14.4703408 9.00049733,14.2616359 8.74246695,14.2616359" id="Fill-26" fill="#15CCCC"></path>
                    <path d="M10.4634579,14.2616359 L10.1767575,14.2616359 C9.91879229,14.2616359 9.70995709,14.4703408 9.70995709,14.7285015 C9.70995709,14.986597 9.91879229,15.1956277 10.1767575,15.1956277 L10.4634579,15.1956277 C10.7214883,15.1956277 10.9302584,14.986597 10.9302584,14.7285015 C10.9302584,14.4703408 10.7214883,14.2616359 10.4634579,14.2616359" id="Fill-28" fill="#15CCCC"></path>
                    <path d="M12.1844489,14.2616359 L11.8977485,14.2616359 C11.6397181,14.2616359 11.4308829,14.4703408 11.4308829,14.7285015 C11.4308829,14.986597 11.6397181,15.1956277 11.8977485,15.1956277 L12.1844489,15.1956277 C12.4424142,15.1956277 12.6512494,14.986597 12.6512494,14.7285015 C12.6512494,14.4703408 12.4424142,14.2616359 12.1844489,14.2616359" id="Fill-30" fill="#15CCCC"></path>
                    <path d="M13.9054399,14.2616359 L13.6187395,14.2616359 C13.3607091,14.2616359 13.1518739,14.4703408 13.1518739,14.7285015 C13.1518739,14.986597 13.3607091,15.1956277 13.6187395,15.1956277 L13.9054399,15.1956277 C14.1634052,15.1956277 14.3721752,14.986597 14.3721752,14.7285015 C14.3721752,14.4703408 14.1634052,14.2616359 13.9054399,14.2616359" id="Fill-32" fill="#15CCCC"></path>
                    <path d="M15.6263723,14.2616359 L15.3396719,14.2616359 C15.0817066,14.2616359 14.8728714,14.4703408 14.8728714,14.7285015 C14.8728714,14.986597 15.0817066,15.1956277 15.3396719,15.1956277 L15.6263723,15.1956277 C15.8844027,15.1956277 16.0931727,14.986597 16.0931727,14.7285015 C16.0931727,14.4703408 15.8844027,14.2616359 15.6263723,14.2616359" id="Fill-34" fill="#15CCCC"></path>
                    <path d="M17.3473633,14.2616359 L17.0606629,14.2616359 C16.8026325,14.2616359 16.5938624,14.4703408 16.5938624,14.7285015 C16.5938624,14.986597 16.8026325,15.1956277 17.0606629,15.1956277 L17.3473633,15.1956277 C17.6053937,15.1956277 17.8141637,14.986597 17.8141637,14.7285015 C17.8141637,14.4703408 17.6053937,14.2616359 17.3473633,14.2616359" id="Fill-36" fill="#15CCCC"></path>
                </g>
            </g>
        </g>
    </g>
</svg>

<?xml version="1.0" encoding="utf-8"?>
<!-- Generator: Adobe Illustrator 23.0.2, SVG Export Plug-In . SVG Version: 6.00 Build 0)  -->
<svg version="1.1" xmlns="http://www.w3.org/2000/svg" xmlns:xlink="http://www.w3.org/1999/xlink" x="0px" y="0px" width="43px"
	 height="44px" viewBox="0 0 43 44" style="enable-background:new 0 0 43 44;" xml:space="preserve">
<style type="text/css">
	.st0{opacity:6.000000e-02;fill-rule:evenodd;clip-rule:evenodd;fill:#00A3FF;}
	.st1{fill-rule:evenodd;clip-rule:evenodd;fill:#15CCCC;}
	.st2{fill-rule:evenodd;clip-rule:evenodd;fill:#00A3FF;}
	.st3{fill-rule:evenodd;clip-rule:evenodd;fill:#27D7CD;}
</style>
<g id="background">
	<circle id="Oval-2-Copy" class="st0" cx="21.5" cy="22.1" r="21.5"/>
</g>
<g id="Layer_1">
	<title>Group 4</title>
	<desc>Created with Sketch.</desc>
	<g id="ipl-copy" transform="translate(10.269194, 11.132812)">
		<path id="Fill-1" class="st1" d="M5.2,9.5c0.4,0,0.7-0.3,0.7-0.7c0-0.4-0.3-0.7-0.7-0.7c-0.4,0-0.7,0.3-0.7,0.7
			C4.5,9.2,4.8,9.5,5.2,9.5"/>
		<path id="Fill-3" class="st1" d="M9.5,9.5c0.4,0,0.7-0.3,0.7-0.7c0-0.4-0.3-0.7-0.7-0.7c-0.4,0-0.7,0.3-0.7,0.7
			C8.8,9.2,9.1,9.5,9.5,9.5"/>
		<path id="Fill-5" class="st1" d="M7.4,8c0.2,0,0.3,0.1,0.3,0.3v0.9c0,0.2-0.1,0.3-0.3,0.3C7.2,9.6,7,9.5,7,9.3V8.4
			C7,8.2,7.2,8,7.4,8"/>
		<path id="Fill-7" class="st1" d="M11.7,2L11.7,2L11.7,2c-0.6,0-1-0.4-1-1s0.4-1,1-1l0.1,0c0.5,0,1,0.4,1,1C12.7,1.6,12.2,2,11.7,2
			z"/>
		<path id="Path" class="st2" d="M4.8,4.5c-0.3,0-0.6-0.1-0.8-0.4c-0.3-0.4-0.3-1,0.1-1.4c1-0.9,2.2-1.5,3.5-2
			c0.5-0.2,1.1,0.1,1.3,0.6c0.2,0.5-0.1,1.1-0.6,1.3C7.3,3,6.3,3.5,5.4,4.2C5.3,4.4,5,4.5,4.8,4.5z"/>
		<path class="st2" d="M18.5,4.5c-0.2,0-0.4-0.1-0.6-0.2c-0.4-0.4-0.9-0.7-1.4-1C16,3,15.5,2.8,15,2.6c-0.5-0.2-0.8-0.7-0.6-1.3
			c0.2-0.5,0.7-0.8,1.3-0.6c0.6,0.2,1.2,0.5,1.8,0.8c0.6,0.3,1.2,0.7,1.7,1.2c0.4,0.3,0.5,1,0.1,1.4C19,4.4,18.7,4.5,18.5,4.5z"/>
		<path class="st1" d="M2.4,7.3c-0.2,0-0.3,0-0.5-0.1C1.4,6.9,1.3,6.3,1.6,5.9l0-0.1c0.3-0.5,0.9-0.6,1.3-0.4
			c0.5,0.3,0.6,0.9,0.4,1.3l0,0.1C3.1,7.1,2.7,7.3,2.4,7.3z"/>
		<path class="st1" d="M20.9,7.4c-0.3,0-0.7-0.2-0.9-0.5l0-0.1c-0.3-0.5-0.1-1.1,0.4-1.3c0.5-0.3,1.1-0.1,1.3,0.4l0,0.1
			C22,6.4,21.8,7,21.3,7.2C21.2,7.3,21,7.4,20.9,7.4z"/>
		<path class="st2" d="M1.1,14.4c-0.5,0-0.9-0.3-1-0.8C0.1,13,0,12.3,0,11.6c0-0.7,0.1-1.4,0.2-2c0.1-0.5,0.6-0.9,1.1-0.8
			C1.8,8.9,2.2,9.4,2.1,10C2,10.5,2,11.1,2,11.6c0,0.6,0,1.1,0.1,1.7c0.1,0.5-0.3,1-0.8,1.1C1.2,14.4,1.2,14.4,1.1,14.4z"/>
		<path class="st2" d="M22.1,14.5c-0.1,0-0.1,0-0.2,0c-0.5-0.1-0.9-0.6-0.8-1.1c0.1-0.6,0.1-1.1,0.1-1.7c0-0.6,0-1.1-0.1-1.7
			c-0.1-0.5,0.3-1,0.8-1.1c0.5-0.1,1,0.3,1.1,0.8c0.1,0.7,0.2,1.3,0.2,2c0,0.7-0.1,1.4-0.2,2C23,14.2,22.6,14.5,22.1,14.5z"/>
		<path class="st1" d="M2.4,18c-0.3,0-0.7-0.2-0.8-0.5l0-0.1c-0.3-0.5-0.1-1.1,0.4-1.3C2.4,15.8,3,16,3.2,16.4l0,0.1
			c0.3,0.5,0.1,1.1-0.4,1.3C2.7,17.9,2.6,18,2.4,18z"/>
		<path class="st3" d="M20.8,18c-0.2,0-0.3,0-0.5-0.1c-0.5-0.3-0.6-0.9-0.4-1.3l0-0.1c0.3-0.5,0.9-0.6,1.3-0.4
			c0.5,0.3,0.6,0.9,0.4,1.3l0,0.1C21.5,17.8,21.1,18,20.8,18z"/>
		<path class="st2" d="M7.9,22.6c-0.1,0-0.2,0-0.3-0.1c-0.6-0.2-1.2-0.5-1.8-0.8c-0.6-0.3-1.2-0.7-1.7-1.2c-0.4-0.3-0.5-1-0.1-1.4
			c0.3-0.4,1-0.5,1.4-0.1c0.4,0.4,0.9,0.7,1.4,1c0.5,0.3,1,0.5,1.5,0.7C8.8,20.9,9,21.5,8.9,22C8.7,22.4,8.3,22.6,7.9,22.6z"/>
		<path class="st2" d="M15.2,22.6c-0.4,0-0.8-0.2-0.9-0.6c-0.2-0.5,0.1-1.1,0.6-1.3c1.1-0.4,2-0.9,2.9-1.7c0.4-0.3,1-0.3,1.4,0.1
			c0.3,0.4,0.3,1-0.1,1.4c-1,0.9-2.2,1.5-3.5,2C15.5,22.6,15.3,22.6,15.2,22.6z"/>
		<path class="st1" d="M11.6,23.3L11.6,23.3c-0.6,0-1-0.4-1-1c0-0.5,0.4-1,1-1h0l0.1,0c0.5,0,1,0.4,1,1
			C12.6,22.8,12.2,23.3,11.6,23.3z"/>
		<path id="Fill-10" class="st1" d="M17.8,12.8c0-0.3-0.2-0.5-0.5-0.5H5c-0.3,0-0.5,0.2-0.5,0.5c0,0.3,0.2,0.5,0.5,0.5h12.3
			C17.6,13.3,17.8,13.1,17.8,12.8"/>
		<path id="Fill-12" class="st2" d="M17.3,8.2h-5.2c-0.4,0-0.6,0.3-0.6,0.6s0.3,0.6,0.6,0.6h5.2c0.4,0,0.6-0.3,0.6-0.6
			S17.7,8.2,17.3,8.2"/>
		<path id="Fill-14" class="st1" d="M13.9,10.5H12c-0.3,0-0.5,0.2-0.5,0.5c0,0.3,0.2,0.5,0.5,0.5h1.9c0.3,0,0.5-0.2,0.5-0.5
			C14.3,10.7,14.1,10.5,13.9,10.5"/>
		<path id="Fill-16" class="st1" d="M6.9,10.5H5c-0.3,0-0.5,0.2-0.5,0.5c0,0.3,0.2,0.5,0.5,0.5h1.9c0.3,0,0.5-0.2,0.5-0.5
			C7.3,10.7,7.1,10.5,6.9,10.5"/>
		<path id="Fill-18" class="st2" d="M10.4,10.5H8.5C8.2,10.5,8,10.7,8,11c0,0.3,0.2,0.5,0.5,0.5h1.9c0.3,0,0.5-0.2,0.5-0.5
			C10.8,10.7,10.6,10.5,10.4,10.5"/>
		<path id="Fill-20" class="st2" d="M17.3,10.5h-1.9c-0.3,0-0.5,0.2-0.5,0.5c0,0.3,0.2,0.5,0.5,0.5h1.9c0.3,0,0.5-0.2,0.5-0.5
			C17.8,10.7,17.6,10.5,17.3,10.5"/>
		<path id="Fill-22" class="st1" d="M5.3,14.3H5c-0.3,0-0.5,0.2-0.5,0.5c0,0.3,0.2,0.5,0.5,0.5h0.3c0.3,0,0.5-0.2,0.5-0.5
			C5.8,14.5,5.6,14.3,5.3,14.3"/>
		<path id="Fill-24" class="st2" d="M7,14.3H6.7c-0.3,0-0.5,0.2-0.5,0.5c0,0.3,0.2,0.5,0.5,0.5H7c0.3,0,0.5-0.2,0.5-0.5
			C7.5,14.5,7.3,14.3,7,14.3"/>
		<path id="Fill-26" class="st1" d="M8.7,14.3H8.5c-0.3,0-0.5,0.2-0.5,0.5c0,0.3,0.2,0.5,0.5,0.5h0.3c0.3,0,0.5-0.2,0.5-0.5
			C9.2,14.5,9,14.3,8.7,14.3"/>
		<path id="Fill-28" class="st2" d="M10.5,14.3h-0.3c-0.3,0-0.5,0.2-0.5,0.5c0,0.3,0.2,0.5,0.5,0.5h0.3c0.3,0,0.5-0.2,0.5-0.5
			C10.9,14.5,10.7,14.3,10.5,14.3"/>
		<path id="Fill-30" class="st1" d="M12.2,14.3h-0.3c-0.3,0-0.5,0.2-0.5,0.5c0,0.3,0.2,0.5,0.5,0.5h0.3c0.3,0,0.5-0.2,0.5-0.5
			C12.7,14.5,12.4,14.3,12.2,14.3"/>
		<path id="Fill-32" class="st2" d="M13.9,14.3h-0.3c-0.3,0-0.5,0.2-0.5,0.5c0,0.3,0.2,0.5,0.5,0.5h0.3c0.3,0,0.5-0.2,0.5-0.5
			C14.4,14.5,14.2,14.3,13.9,14.3"/>
		<path id="Fill-34" class="st1" d="M15.6,14.3h-0.3c-0.3,0-0.5,0.2-0.5,0.5c0,0.3,0.2,0.5,0.5,0.5h0.3c0.3,0,0.5-0.2,0.5-0.5
			C16.1,14.5,15.9,14.3,15.6,14.3"/>
		<path id="Fill-36" class="st2" d="M17.3,14.3h-0.3c-0.3,0-0.5,0.2-0.5,0.5c0,0.3,0.2,0.5,0.5,0.5h0.3c0.3,0,0.5-0.2,0.5-0.5
			C17.8,14.5,17.6,14.3,17.3,14.3"/>
	</g>
</g>
</svg>
